public/icons/Rust.svg

<svg xmlns="http://www.w3.org/2000/svg" width="256" height="256" fill="none" viewBox="0 0 256 256"><rect width="256" height="256" fill="#E43717" rx="60"/><path fill="#fff" d="M226.574 125.551L218.184 120.353C218.113 119.535 218.033 118.719 217.945 117.907L225.169 111.18C225.903 110.496 226.232 109.483 226.033 108.504C225.84 107.52 225.15 106.71 224.212 106.364L214.98 102.924C214.749 102.125 214.506 101.332 214.258 100.535L220.011 92.5468C220.598 91.7345 220.718 90.6777 220.336 89.7566C219.953 88.8335 219.118 88.1723 218.138 88.0098L208.409 86.4275C208.031 85.6898 207.637 84.9636 207.239 84.2488L211.33 75.2668C211.748 74.3533 211.662 73.2983 211.104 72.4575C210.548 71.6242 209.606 71.1369 208.6 71.1751L198.719 71.5191C198.209 70.8808 197.689 70.2483 197.159 69.6272L199.434 60.0144C199.663 59.0379 199.375 58.0078 198.664 57.3007C197.958 56.5936 196.934 56.3012 195.949 56.5305L186.336 58.8047C185.713 58.2772 185.08 57.7555 184.44 57.2453L184.786 47.365C184.824 46.3655 184.336 45.4157 183.503 44.8615C182.668 44.3034 181.611 44.2193 180.693 44.634L171.729 48.7238C171.005 48.3263 170.279 47.9326 169.551 47.5523L167.964 37.8249C167.804 36.8387 167.142 36.0017 166.217 35.6271C165.294 35.243 164.23 35.3672 163.427 35.952L155.438 41.7044C154.65 41.454 153.859 41.2132 153.068 40.9839L149.627 31.7534C149.277 30.8131 148.467 30.1232 147.487 29.9283C146.504 29.7353 145.499 30.0621 144.811 30.7921L138.083 38.016C137.271 37.9262 136.453 37.844 135.637 37.7771L130.438 29.3683C129.912 28.5179 128.981 28 127.972 28C126.963 28 126.042 28.5179 125.526 29.3683L120.327 37.7771C119.509 37.844 118.691 37.9262 117.881 38.016L111.153 30.7921C110.471 30.0621 109.458 29.7353 108.477 29.9283C107.493 30.1251 106.682 30.8131 106.336 31.7534L102.896 40.9839C102.097 41.2132 101.306 41.4559 100.526 41.7044L92.5368 35.952C91.7245 35.3653 90.6657 35.2411 89.7463 35.6271C88.8232 36.0093 88.16 36.8464 87.9994 37.8249L86.413 47.5523C85.6791 47.9326 84.9528 48.3243 84.2342 48.7238L75.2702 44.634C74.3585 44.2174 73.3016 44.3034 72.4606 44.8615C71.6273 45.4157 71.1399 46.3655 71.1781 47.365L71.5221 57.2453C70.8838 57.7555 70.2511 58.2772 69.6261 58.8047L60.0123 56.5305C59.0356 56.3031 58.0054 56.5936 57.2983 57.3007C56.5873 58.0097 56.2987 59.0321 56.528 60.0144L58.7833 69.6272C58.2577 70.2502 57.7379 70.8808 57.2275 71.5191L47.3461 71.1751C46.3504 71.1465 45.3966 71.6242 44.8423 72.4575C44.2842 73.2869 44.2002 74.3494 44.6149 75.2668L48.7051 84.2488C48.3075 84.9693 47.9138 85.6955 47.5335 86.4275L37.805 88.0098C36.8168 88.1704 35.9835 88.8316 35.607 89.7566C35.2247 90.6835 35.3489 91.7441 35.9319 92.5468L41.6849 100.535C41.4345 101.324 41.1918 102.117 40.9624 102.924L31.7309 106.364C30.7943 106.714 30.1043 107.524 29.9094 108.504C29.7144 109.487 30.0413 110.492 30.7733 111.18L37.998 117.907C37.9082 118.719 37.8279 119.537 37.7591 120.353L29.3685 125.551C28.518 126.077 28 127.005 28 128.016C28 129.027 28.518 129.947 29.3685 130.463L37.7591 135.661C37.8279 136.479 37.9082 137.295 37.998 138.107L30.7733 144.834C30.0413 145.516 29.7144 146.529 29.9094 147.509C30.1043 148.494 30.7943 149.302 31.7309 149.65L40.9624 153.09C41.1918 153.889 41.4345 154.682 41.6849 155.479L35.9319 163.467C35.347 164.281 35.2228 165.338 35.607 166.257C35.9911 167.184 36.8264 167.845 37.8241 168.004L47.5526 169.586C47.9329 170.324 48.3228 171.05 48.7242 171.765L44.634 180.728C44.2174 181.639 44.3034 182.696 44.8615 183.537C45.4196 184.372 46.3695 184.86 47.3653 184.819L57.2275 184.474C57.7417 185.116 58.2597 185.744 58.7872 186.369L56.5318 195.982C56.3025 196.957 56.5911 197.97 57.3021 198.677C58.0074 199.39 59.0337 199.674 60.0161 199.445L69.63 197.19C70.2549 197.721 70.8876 198.237 71.526 198.746L71.1819 208.626C71.1437 209.625 71.6311 210.575 72.4644 211.129C73.2939 211.685 74.3566 211.77 75.274 211.353L84.238 207.263C84.9605 207.665 85.6868 208.054 86.4169 208.435L88.0032 218.162C88.1638 219.152 88.8251 219.989 89.7502 220.379C90.6733 220.763 91.7379 220.639 92.5407 220.056L100.53 214.304C101.319 214.554 102.112 214.799 102.919 215.028L106.359 224.258C106.709 225.195 107.519 225.889 108.5 226.08C109.482 226.278 110.488 225.95 111.176 225.216L117.904 217.992C118.716 218.086 119.534 218.164 120.35 218.237L125.549 226.626C126.072 227.473 127.003 227.995 127.995 227.995C128.987 227.995 129.926 227.475 130.461 226.626L135.66 218.237C136.478 218.164 137.294 218.086 138.106 217.992L144.834 225.216C145.516 225.95 146.529 226.278 147.51 226.08C148.494 225.887 149.304 225.195 149.65 224.258L153.091 215.028C153.889 214.799 154.683 214.554 155.48 214.304L163.469 220.056C164.281 220.639 165.34 220.763 166.259 220.379C167.184 219.999 167.846 219.16 168.006 218.162L169.593 208.435C170.327 208.054 171.053 207.659 171.772 207.263L180.736 211.353C181.647 211.77 182.704 211.685 183.545 211.129C184.378 210.571 184.864 209.625 184.828 208.626L184.484 198.746C185.122 198.235 185.755 197.721 186.378 197.19L195.991 199.445C196.968 199.674 197.998 199.39 198.706 198.677C199.417 197.968 199.705 196.949 199.476 195.982L197.22 186.369C197.748 185.744 198.268 185.116 198.776 184.474L208.658 184.819C209.653 184.86 210.607 184.372 211.161 183.537C211.72 182.704 211.806 181.643 211.387 180.728L207.297 171.765C207.696 171.041 208.088 170.314 208.467 169.586L218.195 168.004C219.185 167.845 220.018 167.184 220.393 166.257C220.775 165.334 220.655 164.27 220.068 163.467L214.315 155.479C214.564 154.689 214.806 153.896 215.038 153.09L224.269 149.65C225.208 149.298 225.899 148.49 226.091 147.509C226.289 146.527 225.961 145.522 225.227 144.834L218.002 138.107C218.09 137.295 218.17 136.477 218.241 135.661L226.632 130.463C227.482 129.939 228 129.008 228 128.016C228 127.025 227.484 126.086 226.633 125.551H226.574ZM170.382 195.306C167.171 194.614 165.145 191.445 165.833 188.235C166.519 185.024 169.675 182.979 172.886 183.667C176.097 184.353 178.142 187.527 177.454 190.738C176.766 193.949 173.612 195.994 170.401 195.306H170.382ZM167.534 176.004C164.61 175.377 161.724 177.238 161.112 180.17L158.131 194.082C148.937 198.249 138.635 200.58 127.932 200.58C116.923 200.58 106.526 198.153 97.1603 193.796L94.1786 179.883C93.5517 176.959 90.681 175.086 87.7567 175.717L75.467 178.354C73.1926 176.004 71.0711 173.5 69.1215 170.863H128.945C129.622 170.863 130.073 170.741 130.073 170.125V148.912C130.073 148.297 129.622 148.175 128.945 148.175H111.457V134.778H130.359C132.085 134.778 139.591 135.271 141.98 144.868C142.731 147.811 144.388 157.405 145.516 160.482C146.64 163.922 151.212 170.802 156.086 170.802H185.902C186.24 170.802 186.601 170.763 186.982 170.695C184.917 173.504 182.643 176.16 180.216 178.645L167.639 175.95L167.534 176.004ZM84.7751 195.019C81.5641 195.711 78.4104 193.666 77.7224 190.451C77.0362 187.241 79.0756 184.068 82.2904 183.38C85.5014 182.694 88.655 184.739 89.3431 187.948C90.0292 191.159 87.988 194.331 84.7751 195.019ZM62.0306 103.096C63.3609 106.096 62.0077 109.613 59.0108 110.95C56.0101 112.282 52.5124 110.928 51.1745 107.931C49.8366 104.934 51.1974 101.414 54.1943 100.076C57.1951 98.7463 60.6927 100.099 62.0306 103.096ZM55.0544 119.608L67.8601 113.913C70.5932 112.699 71.8356 109.498 70.6124 106.765L67.9748 100.803H78.334V147.433H57.5009C55.687 141.05 54.7104 134.323 54.7104 127.367C54.7104 124.71 54.8537 122.092 55.1289 119.512L55.0544 119.608ZM111.247 115.078V101.319H135.902C137.177 101.319 144.904 102.792 144.904 108.562C144.904 113.358 138.979 115.078 134.106 115.078H111.17H111.247ZM200.886 127.462C200.886 129.289 200.819 131.093 200.686 132.89H193.174C192.423 132.89 192.121 133.383 192.121 134.118V137.558C192.121 145.661 187.553 147.439 183.539 147.878C179.717 148.308 175.493 146.281 174.977 143.941C172.721 131.271 168.975 128.576 163.05 123.875C170.409 119.212 178.054 112.313 178.054 103.044C178.054 93.0876 171.231 86.8192 166.586 83.7424C160.05 79.4425 152.825 78.5825 150.875 78.5825H73.2767C83.8079 66.8485 98.1236 58.5161 114.178 55.4584L123.334 65.052C125.398 67.2116 128.819 67.3071 130.998 65.2279L141.242 55.4431C162.649 59.4373 180.806 72.7766 191.318 91.1803L184.304 107.004C183.094 109.737 184.329 112.948 187.056 114.152L200.55 120.152C200.783 122.541 200.905 124.968 200.905 127.414L200.886 127.462ZM123.288 47.3879C125.658 45.1137 129.423 45.2093 131.678 47.5809C133.934 49.9507 133.857 53.7155 131.481 55.9897C129.111 58.2639 125.346 58.1683 123.091 55.7948C120.836 53.425 120.912 49.6602 123.288 47.386V47.3879ZM192.859 103.383C194.187 100.382 197.694 99.0253 200.695 100.363C203.696 101.693 205.053 105.217 203.715 108.218C202.387 111.218 198.879 112.575 195.879 111.237C192.878 109.907 191.521 106.383 192.859 103.383Z"/></svg>

<svg xmlns="http://www.w3.org/2000/svg" width="256" height="256" fill="none"><rect width="256" height="256" fill="#E43717" rx="60"/><path fill="#fff" d="m226.574 125.551-8.39-5.198q-.107-1.227-.239-2.446l7.224-6.727a2.88 2.88 0 0 0 .864-2.676 2.87 2.87 0 0 0-1.821-2.14l-9.232-3.44c-.231-.799-.474-1.592-.722-2.389l5.753-7.988a2.88 2.88 0 0 0 .325-2.79 2.9 2.9 0 0 0-2.198-1.747l-9.729-1.583a72 72 0 0 0-1.17-2.178l4.091-8.982a2.89 2.89 0 0 0-.226-2.81 2.87 2.87 0 0 0-2.504-1.282l-9.881.344q-.765-.958-1.56-1.892l2.275-9.613a2.896 2.896 0 0 0-3.485-3.483l-9.613 2.274a83 83 0 0 0-1.896-1.56l.346-9.88c.038-1-.45-1.95-1.283-2.504a2.9 2.9 0 0 0-2.81-.227l-8.964 4.09q-1.086-.599-2.178-1.172l-1.587-9.727a2.87 2.87 0 0 0-1.747-2.198 2.88 2.88 0 0 0-2.79.325l-7.989 5.752a97 97 0 0 0-2.37-.72l-3.441-9.23a2.89 2.89 0 0 0-2.14-1.826 2.9 2.9 0 0 0-2.676.864l-6.728 7.224a87 87 0 0 0-2.446-.239l-5.199-8.409A2.9 2.9 0 0 0 127.972 28c-1.009 0-1.93.518-2.446 1.368l-5.199 8.41c-.818.066-1.636.148-2.446.238l-6.728-7.224a2.9 2.9 0 0 0-2.676-.864 2.88 2.88 0 0 0-2.141 1.825l-3.44 9.23c-.799.23-1.59.473-2.37.721l-7.99-5.752a2.87 2.87 0 0 0-2.79-.325A2.9 2.9 0 0 0 88 37.825l-1.586 9.727q-1.1.571-2.179 1.172l-8.964-4.09a2.893 2.893 0 0 0-4.092 2.731l.344 9.88a92 92 0 0 0-1.896 1.56l-9.614-2.274a2.91 2.91 0 0 0-2.714.77c-.71.709-1 1.731-.77 2.713l2.255 9.613a93 93 0 0 0-1.556 1.892l-9.88-.344a2.9 2.9 0 0 0-2.505 1.282 2.9 2.9 0 0 0-.227 2.81l4.09 8.982q-.599 1.08-1.172 2.178l-9.728 1.583a2.87 2.87 0 0 0-2.198 1.747 2.89 2.89 0 0 0 .325 2.79l5.753 7.988a82 82 0 0 0-.723 2.389l-9.231 3.44a2.89 2.89 0 0 0-1.822 2.14 2.89 2.89 0 0 0 .864 2.676l7.225 6.727q-.135 1.22-.239 2.446l-8.39 5.198A2.89 2.89 0 0 0 28 128.016c0 1.011.518 1.931 1.369 2.447l8.39 5.198q.105 1.228.239 2.446l-7.225 6.727a2.888 2.888 0 0 0 .958 4.816l9.231 3.44c.23.799.472 1.592.723 2.389l-5.753 7.988a2.886 2.886 0 0 0 1.892 4.537l9.729 1.582q.57 1.107 1.171 2.179l-4.09 8.963a2.892 2.892 0 0 0 2.731 4.091l9.862-.345a95 95 0 0 0 1.56 1.895l-2.255 9.613c-.23.975.06 1.988.77 2.695a2.89 2.89 0 0 0 2.714.768l9.614-2.255a78 78 0 0 0 1.896 1.556l-.344 9.88a2.88 2.88 0 0 0 1.282 2.503c.83.556 1.893.641 2.81.224l8.964-4.09q1.083.602 2.179 1.172l1.586 9.727c.16.99.822 1.827 1.747 2.217.923.384 1.988.26 2.79-.323l7.99-5.752c.789.25 1.582.495 2.389.724l3.44 9.23a2.88 2.88 0 0 0 2.141 1.822 2.88 2.88 0 0 0 2.676-.864l6.728-7.224c.812.094 1.63.172 2.446.245l5.199 8.389a2.89 2.89 0 0 0 2.446 1.369c.992 0 1.931-.52 2.466-1.369l5.199-8.389a94 94 0 0 0 2.446-.245l6.728 7.224a2.88 2.88 0 0 0 2.676.864 2.87 2.87 0 0 0 2.14-1.822l3.441-9.23c.798-.229 1.592-.474 2.389-.724l7.989 5.752a2.885 2.885 0 0 0 4.537-1.894l1.587-9.727c.734-.381 1.46-.776 2.179-1.172l8.964 4.09a2.889 2.889 0 0 0 4.092-2.727l-.344-9.88a80 80 0 0 0 1.894-1.556l9.613 2.255a2.89 2.89 0 0 0 2.715-.768 2.87 2.87 0 0 0 .77-2.695l-2.256-9.613a76 76 0 0 0 1.556-1.895l9.882.345a2.87 2.87 0 0 0 2.503-1.282 2.88 2.88 0 0 0 .226-2.809l-4.09-8.963q.6-1.086 1.17-2.179l9.728-1.582a2.86 2.86 0 0 0 2.198-1.747 2.88 2.88 0 0 0-.325-2.79l-5.753-7.988c.249-.79.491-1.583.723-2.389l9.231-3.44a2.88 2.88 0 0 0 1.822-2.141 2.88 2.88 0 0 0-.864-2.675l-7.225-6.727q.132-1.22.239-2.446l8.391-5.198a2.88 2.88 0 0 0 1.368-2.447c0-.991-.516-1.93-1.367-2.465zm-56.192 69.755c-3.211-.692-5.237-3.861-4.549-7.071a5.94 5.94 0 0 1 7.053-4.568c3.211.686 5.256 3.86 4.568 7.071a5.94 5.94 0 0 1-7.053 4.568zm-2.848-19.302c-2.924-.627-5.81 1.234-6.422 4.166l-2.981 13.912c-9.194 4.167-19.496 6.498-30.199 6.498-11.009 0-21.406-2.427-30.772-6.784l-2.981-13.913c-.627-2.924-3.498-4.797-6.422-4.166l-12.29 2.637a74 74 0 0 1-6.346-7.491h59.824c.677 0 1.128-.122 1.128-.738v-21.213c0-.615-.451-.737-1.128-.737h-17.488v-13.397h18.902c1.726 0 9.232.493 11.621 10.09.751 2.943 2.408 12.537 3.536 15.614 1.124 3.44 5.696 10.32 10.57 10.32h29.816c.338 0 .699-.039 1.08-.107a75 75 0 0 1-6.766 7.95l-12.577-2.695zm-82.759 19.015a5.933 5.933 0 0 1-7.053-4.568c-.686-3.21 1.354-6.383 4.568-7.071a5.94 5.94 0 0 1 7.053 4.568c.686 3.211-1.355 6.383-4.568 7.071m-22.744-91.923a5.96 5.96 0 0 1-3.02 7.854 5.94 5.94 0 0 1-7.837-3.019c-1.337-2.997.023-6.517 3.02-7.855 3.001-1.33 6.499.023 7.837 3.02m-6.977 16.512 12.806-5.695c2.733-1.214 3.976-4.415 2.752-7.148l-2.637-5.962h10.359v46.63H57.501a73.3 73.3 0 0 1-2.79-20.066 74 74 0 0 1 .418-7.855zm56.193-4.53v-13.759h24.655c1.275 0 9.002 1.473 9.002 7.243 0 4.796-5.925 6.516-10.798 6.516H111.17zm89.639 12.384c0 1.827-.067 3.631-.2 5.428h-7.512c-.751 0-1.053.493-1.053 1.228v3.44c0 8.103-4.568 9.881-8.582 10.32-3.822.43-8.046-1.597-8.562-3.937-2.256-12.67-6.002-15.365-11.927-20.066 7.359-4.663 15.004-11.562 15.004-20.831 0-9.956-6.823-16.225-11.468-19.302-6.536-4.3-13.761-5.16-15.711-5.16H73.277c10.53-11.733 24.847-20.066 40.901-23.124l9.156 9.594a5.415 5.415 0 0 0 7.664.176l10.244-9.785c21.407 3.994 39.564 17.334 50.076 35.737l-7.014 15.824c-1.21 2.733.025 5.944 2.752 7.148l13.494 6c.233 2.389.355 4.816.355 7.262zm-77.598-80.074a5.923 5.923 0 0 1 8.39.193 5.96 5.96 0 0 1-.197 8.409 5.92 5.92 0 0 1-8.39-.195 5.96 5.96 0 0 1 .197-8.409zm69.571 55.995a5.927 5.927 0 0 1 7.836-3.02 5.95 5.95 0 0 1 3.02 7.855 5.93 5.93 0 0 1-7.836 3.019 5.95 5.95 0 0 1-3.02-7.854"/></svg>
